svgs/todoist.svg

<svg width="24" height="24" viewBox="0 0 24 24" fill="none" xmlns="http://www.w3.org/2000/svg">
<path d="M18.75 3.00352H5.25C4.0125 3.00352 3 4.01602 3 5.25V8.14337C3 8.14337 5.88984 9.82383 6.07265 9.92579C6.30469 10.0594 6.59297 10.0594 6.825 9.92579C7.02187 9.8168 12.8402 6.46993 12.9281 6.42071C13.1355 6.30118 13.3605 6.34336 13.4871 6.41719C13.6102 6.4875 13.9441 6.67735 14.1164 6.77579C14.2922 6.87774 14.2816 7.15196 14.127 7.24336L6.84609 11.434C6.58594 11.5816 6.3293 11.5852 6.05859 11.434C5.60859 11.1809 3.74883 10.0981 3 9.66212V11.1774L6.07265 12.9598C6.30469 13.0934 6.59297 13.0934 6.825 12.9598C7.02187 12.8508 12.8402 9.50391 12.9246 9.45469C13.132 9.33516 13.357 9.37735 13.4836 9.45118C13.6066 9.52501 13.9406 9.71133 14.1129 9.80977C14.2887 9.90821 14.2781 10.1859 14.1234 10.2738C13.9688 10.3652 7.15898 14.2817 6.83906 14.4645C6.5789 14.6121 6.32226 14.6156 6.05156 14.4645C5.60156 14.2113 3.74179 13.1285 2.99297 12.6926V14.2078L6.06562 15.9902C6.29765 16.1274 6.58594 16.1238 6.81797 15.9902C7.01484 15.8813 12.8332 12.5379 12.9176 12.4816C13.125 12.3621 13.35 12.4043 13.4766 12.4781C13.5996 12.552 13.9336 12.7383 14.1059 12.8367C14.2816 12.9352 14.2711 13.2129 14.1164 13.3008L6.84609 17.4984C6.58594 17.6461 6.3293 17.6496 6.05859 17.502C5.60859 17.2453 3.74883 16.1625 3 15.7266V18.75C3 19.984 4.0125 21 5.25 21H18.75C19.9875 21 21 19.9875 21 18.75V5.25C21 4.01602 19.9875 3 18.75 3.00352Z" fill="black"/>
</svg>

<svg xmlns="http://www.w3.org/2000/svg" width="24" height="24" fill="none" xmlns:v="https://vecta.io/nano"><path d="M18.75 3.004H5.25C4.013 3.004 3 4.016 3 5.25v2.893l3.073 1.782c.232.134.52.134.752 0l6.103-3.505a.57.57 0 0 1 .559-.004l.629.359c.176.102.165.376.011.468l-7.281 4.191c-.26.148-.517.151-.788 0L3 9.662v1.515l3.073 1.782c.232.134.52.134.752 0l6.1-3.505a.57.57 0 0 1 .559-.004l.629.359c.176.098.165.376.011.464l-7.284 4.191c-.26.148-.517.151-.787 0l-3.059-1.772v1.515l3.073 1.782c.232.137.52.134.752 0l6.1-3.509a.57.57 0 0 1 .559-.004l.629.359c.176.098.165.376.011.464l-7.27 4.198c-.26.148-.517.151-.788.004L3 15.727v3.023A2.26 2.26 0 0 0 5.25 21h13.5A2.26 2.26 0 0 0 21 18.75V5.25c0-1.234-1.012-2.25-2.25-2.246z" fill="#000"/></svg>
